src/components/class-icon/images/Fighter.svg

<?xml version="1.0" encoding="UTF-8"?>
<svg width="107px" height="100px" viewBox="0 0 107 100" version="1.1" xmlns="http://www.w3.org/2000/svg" xmlns:xlink="http://www.w3.org/1999/xlink">
    <!-- Generator: Sketch 53.2 (72643) - https://sketchapp.com -->
    <title>ClassIcon/Fighter</title>
    <desc>Created with Sketch.</desc>
    <g id="ClassIcon/Fighter" stroke="none" stroke-width="1" fill="none" fill-rule="evenodd">
        <g transform="translate(-0.000000, 0.000000)" fill="#00040C" fill-rule="nonzero" id="Path">
            <path d="M2.44680851,1.53191489 C3.0106383,1.18085106 3.5106383,0.765957447 4.12765957,0.468085106 C5.00275523,1.44967841 5.62694998,2.62871295 5.94680851,3.90425532 C7.38297872,5.31914894 9.17021277,6.38297872 10.5425532,7.93617021 C13.7340426,11.2234043 16.8617021,14.5319149 20.0531915,17.787234 C20.2021277,17.2978723 20.287234,16.7765957 20.393617,16.2765957 C21,16.2021277 21.7978723,16.5531915 22.2446809,15.9787234 C23.6616818,14.4205998 24.9934123,12.7870104 26.2340426,11.0851064 C26.6595745,10.3723404 27.5638298,10.4042553 28.287234,10.2765957 C28.6262269,11.3315826 28.8544085,12.4190103 28.9680851,13.5212766 C27.9574468,13.7234043 26.5957447,13.2659574 25.9255319,14.2765957 C24.9361702,15.5212766 23.7978723,16.6276596 22.8404255,17.9148936 C23.1152039,18.745907 23.4715505,19.5476868 23.9042553,20.3085106 C24.3617021,20.212766 24.8191489,20.0851064 25.2765957,19.9680851 C27.2553191,22.2340426 29.393617,24.3617021 31.4468085,26.5638298 C31.7765957,26.8723404 31.7234043,27.3404255 31.7340426,27.7553191 C31.7340426,30.9468085 31.7340426,34.1382979 31.7340426,37.3829787 C27.6595745,33.5319149 23.5425532,29.6595745 19.5106383,25.7446809 C19.5957447,25.3085106 19.6808511,24.8617021 19.7446809,24.4148936 C18.9962622,23.9869991 18.2090733,23.6308051 17.393617,23.3510638 C16.106383,24.3085106 15,25.4787234 13.7446809,26.4680851 C12.7446809,27.1489362 13.2446809,28.5 13,29.5 C11.9259691,29.3558478 10.8605677,29.1534215 9.80851064,28.893617 C9.80851064,28.1276596 9.80851064,27.1702128 10.606383,26.7659574 C12.3070114,25.5242733 13.9371934,24.1888736 15.4893617,22.7659574 C16.0319149,22.3191489 15.6808511,21.5744681 15.7021277,20.9893617 C16.1964122,20.8291246 16.7063964,20.7221349 17.2234043,20.6702128 C17.0851064,20.2553191 16.6914894,20.0319149 16.4042553,19.7340426 C13.4255319,16.8723404 10.4680851,13.9893617 7.5,11.1276596 C6.45292571,10.0778407 5.4823593,8.95440124 4.59574468,7.76595745 C4.06382979,7.17021277 3.65957447,6.38297872 2.79787234,6.19148936 C1.72946848,5.94410857 0.756850018,5.38938321 0,4.59574468 C0.712765957,3.5106383 1.24468085,2.12765957 2.44680851,1.53191489"></path>
            <path d="M86.3617021,7.57446809 C86.6382979,7.34042553 86.8829787,7.08510638 87.1595745,6.84042553 C88.0744681,7.61702128 88.8829787,8.5106383 89.7234043,9.37234043 C88.7765957,10.1595745 87.9787234,11.9148936 89.2234043,12.7765957 C91.9258413,15.8068289 95.4006034,18.04612 99.2765957,19.2553191 C100.5,19.5744681 101.723404,19.9148936 102.968085,20.1595745 C104.212766,20.4042553 105.234043,19.9468085 106.382979,20.0425532 C105.018927,23.9591674 103.075335,27.6491227 100.617021,30.9893617 C99.2441733,32.6123031 97.7273566,34.1077562 96.0851064,35.4574468 C93.2553191,37.5851064 90.606383,40.0851064 87.393617,41.6489362 C85.106383,42.2765957 82.893617,43.2765957 80.5106383,43.4148936 C82.787234,41.4893617 83.9787234,38.7446809 85.2553191,36.1702128 C85.8905954,33.0878738 85.7257837,29.8941889 84.7765957,26.893617 C83.0957447,24.8510638 81.787234,22.5212766 80.0425532,20.5106383 C79.2978723,21.106383 78.287234,21.106383 77.5425532,21.6595745 C74.3510638,24.7340426 71.3510638,27.9255319 68.1702128,30.9574468 C68.1702128,29.393617 68.1702128,27.8297872 68.1702128,26.2659574 C68.1702128,25.7553191 68.5638298,25.4361702 68.8723404,25.106383 C70.8723404,23.1489362 72.8297872,21.1489362 74.8297872,19.1808511 C75.5425532,18.5106383 75.3723404,17.3617021 76.0744681,16.6808511 C78.9113475,13.8439716 81.7269504,11.0283688 84.5212766,8.23404255 C85.0106383,7.72340426 85.8510638,8.05319149 86.3829787,7.59574468"></path>
            <path d="M32.3510638,16.2234043 C33.893617,17.2021277 35.2659574,18.4361702 36.8085106,19.4148936 C39.7446809,21.0425532 43.6170213,21.8085106 46.6382979,19.9787234 C48.393617,19.5212766 48.8829787,17.5957447 49.9148936,16.3297872 C50.6595745,17.2978723 51.2021277,18.4574468 52.0425532,19.3617021 C52.9361702,19.9148936 53.9468085,20.287234 54.893617,20.7553191 C57.0619186,21.2335721 59.3241949,21.044431 61.3829787,20.212766 C63.6808511,19.3191489 65.4361702,17.5106383 67.4787234,16.2021277 C67.4787234,36.0602837 67.4255319,55.9503546 67.3191489,75.8723404 C66.9893617,78.1914894 66.7765957,80.5531915 66.3191489,82.8617021 C65.0638298,84.4574468 63.6702128,85.9680851 62.3404255,87.5212766 C59.893617,89.7446809 56.9680851,91.4468085 54.7553191,93.9042553 C53.0200721,95.6432084 51.4096901,97.5024353 49.9361702,99.4680851 C47.974386,96.9487135 45.841697,94.5672109 43.5531915,92.3404255 C41.6170213,90.7553191 39.6170213,89.2659574 37.6914894,87.6914894 C36.3829787,86.287234 33.3829787,82.6914894 33.3617021,82.2659574 C33.0851064,79.9680851 32.712766,77.6702128 32.4574468,75.3723404 C32.4574468,61.106383 32.4574468,46.8297872 32.3510638,32.5744681 C32.3510638,27.106383 32.287234,21.6276596 32.3510638,16.1595745"></path>
            <path d="M15.8723404,78.0638298 C21.0212766,72.6276596 26.5106383,67.5319149 31.7340426,62.1914894 C31.8404191,63.8955045 31.8404191,65.6044955 31.7340426,67.3085106 C29.3404255,69.8297872 26.7659574,72.1808511 24.4468085,74.7553191 C18.3333333,80.7836879 12.251773,86.8368794 6.20212766,92.9148936 C5.41489362,93.8723404 5.27659574,95.4361702 3.94680851,95.893617 C3.04589737,95.9001057 2.18155273,95.5377358 1.55462203,94.8907111 C0.92769133,94.2436865 0.592761324,93.3683435 0.627659574,92.4680851 C1.21276596,91.0425532 2.96808511,91.0319149 3.93617021,90.0106383 C7.90070922,86.0319149 11.8794326,82.0496454 15.8723404,78.0638298"></path>
            <path d="M68.1595745,65.287234 C68.1595745,65.287234 82.7340426,80.6489362 90.0425532,88.2978723 C90.5035693,88.7606423 90.9235827,89.2625227 91.2978723,89.7978723 C93.106383,92.3723404 95,94.9042553 96.7978723,97.4893617 C94.1808511,95.6276596 91.5957447,93.7234043 88.9787234,91.8617021 C88.3543508,91.3863585 87.7707629,90.8597059 87.2340426,90.287234 L68.0851064,72.0957447 L68.1595745,65.287234 Z"></path>
        </g>
    </g>
</svg>

<svg viewBox="0 0 107 100" xmlns="http://www.w3.org/2000/svg"><g fill="#00040C" fill-rule="nonzero"><path d="M2.447 1.532C3.01 1.18 3.51.766 4.127.468c.876.982 1.5 2.16 1.82 3.436C7.383 5.32 9.17 6.383 10.543 7.936c3.191 3.287 6.319 6.596 9.51 9.851.15-.49.234-1.01.34-1.51.607-.075 1.405.276 1.852-.298a58.436 58.436 0 0 0 3.989-4.894c.426-.713 1.33-.68 2.053-.808.34 1.055.567 2.142.681 3.244-1.01.202-2.372-.255-3.042.756-.99 1.244-2.128 2.35-3.086 3.638.275.83.632 1.633 1.064 2.394.458-.096.915-.224 1.373-.34 1.978 2.265 4.117 4.393 6.17 6.595.33.308.276.776.287 1.191v9.628c-4.074-3.851-8.191-7.723-12.223-11.638.085-.436.17-.883.234-1.33a13.68 13.68 0 0 0-2.351-1.064c-1.288.958-2.394 2.128-3.65 3.117-1 .68-.5 2.032-.744 3.032a29.904 29.904 0 0 1-3.191-.606c0-.766 0-1.724.797-2.128a56.734 56.734 0 0 0 4.883-4c.543-.447.192-1.192.213-1.777a7.298 7.298 0 0 1 1.521-.319c-.138-.415-.532-.638-.819-.936-2.978-2.862-5.936-5.745-8.904-8.606a31.064 31.064 0 0 1-2.904-3.362c-.532-.596-.936-1.383-1.798-1.575A5.617 5.617 0 0 1 0 4.596C.713 3.51 1.245 2.128 2.447 1.532M86.362 7.574c.276-.234.521-.489.798-.734.914.777 1.723 1.67 2.563 2.532-.946.788-1.744 2.543-.5 3.405a22.415 22.415 0 0 0 10.054 6.478c1.223.32 2.446.66 3.691.905 1.245.244 2.266-.213 3.415-.117a41.49 41.49 0 0 1-5.766 10.946 35.255 35.255 0 0 1-4.532 4.468c-2.83 2.128-5.479 4.628-8.691 6.192-2.288.628-4.5 1.628-6.883 1.766 2.276-1.926 3.468-4.67 4.744-7.245.636-3.082.47-6.276-.478-9.276-1.681-2.043-2.99-4.373-4.734-6.383-.745.595-1.756.595-2.5 1.149-3.192 3.074-6.192 6.266-9.373 9.297v-4.691c0-.51.394-.83.702-1.16 2-1.957 3.958-3.957 5.958-5.925.713-.67.542-1.82 1.244-2.5l8.447-8.447c.49-.51 1.33-.18 1.862-.638M32.351 16.223c1.543.98 2.915 2.213 4.458 3.192 2.936 1.628 6.808 2.394 9.83.564 1.755-.458 2.244-2.383 3.276-3.65.745.969 1.287 2.128 2.128 3.033.893.553 1.904.925 2.85 1.393a11 11 0 0 0 6.49-.542c2.298-.894 4.053-2.702 6.096-4.01 0 19.857-.053 39.747-.16 59.67-.33 2.318-.542 4.68-1 6.989-1.255 1.595-2.649 3.106-3.979 4.66-2.446 2.223-5.372 3.925-7.585 6.382a52.223 52.223 0 0 0-4.819 5.564 69.66 69.66 0 0 0-6.383-7.128c-1.936-1.585-3.936-3.074-5.862-4.649-1.308-1.404-4.308-5-4.33-5.425-.276-2.298-.648-4.596-.904-6.894 0-14.266 0-28.542-.106-42.798 0-5.468-.064-10.946 0-16.414M15.872 78.064c5.15-5.436 10.639-10.532 15.862-15.873a41.064 41.064 0 0 1 0 5.118c-2.394 2.52-4.968 4.872-7.287 7.446a2753.593 2753.593 0 0 0-18.245 18.16c-.787.957-.925 2.521-2.255 2.979a3.298 3.298 0 0 1-3.32-3.426c.586-1.425 2.341-1.436 3.31-2.457 3.964-3.98 7.942-7.961 11.935-11.947M68.16 65.287s14.574 15.362 21.883 23.01c.46.464.88.966 1.255 1.5 1.808 2.575 3.702 5.107 5.5 7.692-2.617-1.861-5.202-3.766-7.82-5.627a14.096 14.096 0 0 1-1.744-1.575L68.085 72.096l.075-6.809z"/></g></svg>
